X: 42348
T: Welcome Call, The
R: reel
M: 4/4
K: Gmajor
AcBd cAGE|D2CD EGG2|(3ABc Bd cAGc|Add^c dfag|
f2ed dcAG|(3EFG cG EGG2|(3ABc Bd cAGc|Ad^ce d2d=c:|
Ad~d2 ~d2ad|~d2ad dcAG|Ac~c2 cdea|~a2ea gedc|
Ad~d2 ~d2Ad|~d2 Ad cAGE|CDEd cAGE|CDEG ED[D2A2]:|

